packages/kaspersky-hexa-ui-icons/src/iconsSVGs/32/DevicePhoneIPhone.svg

<svg width="32" height="32" viewBox="0 0 32 32" fill="none" xmlns="http://www.w3.org/2000/svg">
<path fill-rule="evenodd" clip-rule="evenodd" d="M7 6C7 3.79086 8.79086 2 11 2H21C23.2091 2 25 3.79086 25 6V26C25 28.2091 23.2091 30 21 30H11C8.79086 30 7 28.2091 7 26V6ZM20 4H21C22.1046 4 23 4.89543 23 6V26C23 27.1046 22.1046 28 21 28H11C9.89543 28 9 27.1046 9 26V6C9 4.89543 9.89543 4 11 4H12L12.7236 5.44721C12.893 5.786 13.2393 6 13.618 6H18.382C18.7607 6 19.107 5.786 19.2764 5.44721L20 4Z" fill="black"/>
</svg>

<svg xmlns="http://www.w3.org/2000/svg" width="32" height="32" fill="none" viewBox="0 0 32 32"><path fill="#000" fill-rule="evenodd" d="M7 6c0-2.2091 1.7909-4 4-4h10c2.2091 0 4 1.7909 4 4v20c0 2.2091-1.7909 4-4 4H11c-2.2091 0-4-1.7909-4-4zm13-2h1c1.1046 0 2 .8954 2 2v20c0 1.1046-.8954 2-2 2H11c-1.1046 0-2-.8954-2-2V6c0-1.1046.8954-2 2-2h1l.7236 1.4472A1 1 0 0 0 13.618 6h4.764a1 1 0 0 0 .8944-.5528z"/></svg>
